X:1
T: The Lads of Leith
C:
R:Jig
Q:180
K:G
M:6/8
L:1/16
|:GA|B2c2B2 A4G2|F2G2E2 ^D4B,2|E2F2G2 A2F2^D2|E6E4GA|
B2c2B2 A4G2|F2G2E2 ^D4B,2|E2F2G2 A2F2^D2|E6E4GA|
B4g2 f4e2|d2B2e2 d6|G2A2G2 d2c2B2|A2B2G2 F4D2|
G2F2G2 A2G2A2|B4E2 ^D4B,2|E2F2G2 A2F2^D2|E6E4:|
